X: 680
M: 6/8
L: 1/8
K: G
V: 1
|:\
E2G G,2G | E2G G,2b | a2g def | g3- g3 :|
|:\
d2D dcB | A3 DDD | G2A B2G | cdB ABc |\
d2D d2D | d2D d2g | dcB AGF | G3- G3 :|
V: 2 clef=bass middle=d
|:\
g2e d2c | B3 B3 | c3 A3 | d3 D3 |\
c3 G3 | c3 B3 | c3 d3 | g3 G3 :|
|:\
d3 bag | f3 d3 | e2f g2e | abg fdc |\

